X:261
T:Slippin On Ice
C:Butch Robbins
N:Recorded on "Fragments Of My Imagination" Transcribed By Dave Cotten "Bluegrass and Old-Time Mandolin" TablEdited by Mike Stangeland
L:1/8
Q:1/4=220
M:4/4
K:C
z8 |: "C"G,A, CD EG Ac | ec Ac AG EA | GE DG ED CD | "Am"ED EG "G"ED CA, | "C"G,A, CD EG Ac | 
ec Ac AG EA | GE DG "G7"ED G,A, | "C"zC CC C2 G,2 :|: [a2c2E2A,2] z2 [g2B2D2] z2 | 
"Am"AG Ac (3dcA cd | eg ac' "C"ag ea | ge dg "G"ed cG | A2 [a2c2E2A,2] [g4B4D4G,4] | 
"Am"AG Ac (3dcA cd | eg ac' "C"ag ea | "G7"ge de "C"c2 z2 :| 
 

